vendor/shopware/storefront/Resources/app/storefront/dist/assets/icon/default/map.svg

<svg xmlns="http://www.w3.org/2000/svg" width="24" height="24" viewBox="0 0 24 24">
  <path fill="#758CA3" fill-rule="evenodd" d="M15.7357088,2.0352964 C15.8198966,2.01228539 15.9085136,2 16,2 C16.1033917,2 16.2031186,2.01569087 16.2969293,2.04482125 L23.2747211,4.03847605 C23.7040227,4.16113364 24,4.55351964 24,5 L24,21 C24,21.6643789 23.3640951,22.1440429 22.7252789,21.9615239 L15.9827533,20.0350881 L8.26429121,21.9647036 C8.18010339,21.9877146 8.0914864,22 8,22 C7.89660831,22 7.79688142,21.9843091 7.7030707,21.9551788 L0.725278872,19.9615239 C0.295977314,19.8388664 0,19.4464804 0,19 L0,3 C0,2.33562112 0.635904922,1.85595714 1.27472113,2.03847605 L8.01724668,3.96491192 L15.7357088,2.0352964 Z M15,4.28077641 L9,5.78077641 L9,19.7192236 L15,18.2192236 L15,4.28077641 Z M17,4.32572998 L17,18.2456986 L22,19.67427 L22,5.75430141 L17,4.32572998 Z M7,5.75430141 L2,4.32572998 L2,18.2456986 L7,19.67427 L7,5.75430141 Z"/>
</svg>

<svg xmlns="http://www.w3.org/2000/svg" width="24" height="24" viewBox="0 0 24 24"><path fill="#758CA3" fill-rule="evenodd" d="M15.7357 2.0353A1.0011 1.0011 0 0 1 16 2a.9997.9997 0 0 1 .297.0448l6.9777 1.9937A1 1 0 0 1 24 5v16c0 .6644-.6359 1.144-1.2747.9615l-6.7425-1.9264-7.7185 1.9296A1.0011 1.0011 0 0 1 8 22a.9997.9997 0 0 1-.297-.0448L.7254 19.9615A1 1 0 0 1 0 19V3c0-.6644.6359-1.144 1.2747-.9615l6.7425 1.9264 7.7185-1.9296zM15 4.2808l-6 1.5v13.9384l6-1.5V4.2808zm2 .045v13.9199l5 1.4286v-13.92l-5-1.4286zM7 5.7542 2 4.3257v13.92l5 1.4286v-13.92z"/></svg>
